source/img/primary-award-from.svg

<svg
  xmlns="http://www.w3.org/2000/svg" xmlns:xlink="http://www.w3.org/1999/xlink"
  viewBox="0 0 350 330"
>
  <g id="airship">
    <g id="top-back-wing" transform="translate(0, -3)">
      <path
        d="M123.23,173.34h9.16a3.29,3.29,0,0,1,3.29,3.3v5.71a3.29,3.29,0,0,1-3.29,3.3H115.57a1.32,1.32,0,0,1-1.32-1.32v-2a9,9,0,0,1,9-9"
        fill="#068e4d"/>
      <path
        d="M123.23,173.34h9.16a3.29,3.29,0,0,1,3.29,3.3v5.71a3.29,3.29,0,0,1-3.29,3.3H115.57a1.32,1.32,0,0,1-1.32-1.32v-2A9,9,0,0,1,123.23,173.34Z"
        fill="none" stroke="#fff" stroke-linecap="round" stroke-linejoin="round" stroke-width="2"/>
      <animateTransform
        attributeName="transform"
        type="translate"
        values="0,3; 0,-3; 0,3"
        dur="1"
        repeatCount="indefinite"
        fill="freeze"
      />
    </g>

    <g id="bottom-back-wing" transform="translate(0, -3)">
      <path
        d="M123.23,207.39h9.16a3.29,3.29,0,0,0,3.29-3.3v-5.71a3.29,3.29,0,0,0-3.29-3.3H115.57a1.32,1.32,0,0,0-1.32,1.32v2a9,9,0,0,0,9,9"
        fill="#068e4d"/>
      <path
        d="M123.23,207.39h9.16a3.29,3.29,0,0,0,3.29-3.3v-5.71a3.29,3.29,0,0,0-3.29-3.3H115.57a1.32,1.32,0,0,0-1.32,1.32v2A9,9,0,0,0,123.23,207.39Z"
        fill="none" stroke="#fff" stroke-linecap="round" stroke-linejoin="round" stroke-width="2"/>
      <animateTransform
        attributeName="transform"
        type="translate"
        values="0,3; 0,-3; 0,3"
        dur="1"
        repeatCount="indefinite"
        fill="freeze"
      />
    </g>

    <path
      id="cabin"
      d="M 175.44 249.28 L 175.44 249.28 L 223.8 249.28 C 226.863 249.278 229.831 248.216 232.201 246.275 C 234.57 244.334 236.195 241.633 236.8 238.63 L 240.54 220.31 L 172.36 220.31 L 172.36 246.2 C 172.363 247.016 172.688 247.798 173.265 248.375 C 173.842 248.952 174.624 249.277 175.44 249.28 L 175.44 249.28"
      fill="none"
      stroke="#fff"
      stroke-linecap="round"
      stroke-linejoin="round"
      stroke-width="2"
    >
      <animate
        attributeName="d"
        repeatCount="indefinite"
        dur="1"
        values="M 175.44 249.28 L 175.44 249.28 L 223.8 249.28 C 226.863 249.278 229.831 248.216 232.201 246.275 C 234.57 244.334 236.195 241.633 236.8 238.63 L 240.54 220.31 L 172.36 220.31 L 172.36 246.2 C 172.363 247.016 172.688 247.798 173.265 248.375 C 173.842 248.952 174.624 249.277 175.44 249.28 L 175.44 249.28; M 177 245 L 200.53 245 L 224.059 245 C 227.159 244.998 229.102 243.675 231.5 242 C 233.898 240.325 236 238.5 237.215 235.809 L 241 220 L 172 220 L 174 240.5 C 174.003 241.204 174.416 243.002 175 243.5 C 175.584 243.998 176.174 244.998 177 245 L 177 245; M 175.44 249.28 L 175.44 249.28 L 223.8 249.28 C 226.863 249.278 229.831 248.216 232.201 246.275 C 234.57 244.334 236.195 241.633 236.8 238.63 L 240.54 220.31 L 172.36 220.31 L 172.36 246.2 C 172.363 247.016 172.688 247.798 173.265 248.375 C 173.842 248.952 174.624 249.277 175.44 249.28 L 175.44 249.28"
      />
    </path>
    <path
      id="front-window"
      d="M235.79 241.69H226.57C224.371 241.682 222.265 240.803 220.713 239.245C219.161 237.688 218.29 235.579 218.29 233.38V220.31"
      fill="none"
      stroke="#fff"
      stroke-linecap="round"
      stroke-miterlimit="10"
      stroke-width="2"
    >
      <animate
        attributeName="d"
        repeatCount="indefinite"
        dur="1"
        values="M235.79 241.69H226.57C224.371 241.682 222.265 240.803 220.713 239.245C219.161 237.688 218.29 235.579 218.29 233.38V220.31; M234 239.5H225.043C222.908 239.493 220.862 238.67 219.354 237.213C217.846 235.756 217 233.783 217 231.726V219.5; M235.79 241.69H226.57C224.371 241.682 222.265 240.803 220.713 239.245C219.161 237.688 218.29 235.579 218.29 233.38V220.31"
      />
    </path>
    <path
      id="right-window"
      d="M204.25 231.88H202.2C201.288 231.885 200.416 232.251 199.773 232.898C199.131 233.544 198.77 234.418 198.77 235.33V238.25C198.77 239.162 199.131 240.036 199.773 240.682C200.416 241.329 201.288 241.695 202.2 241.7H204.25C205.162 241.695 206.034 241.329 206.677 240.682C207.319 240.036 207.68 239.162 207.68 238.25V235.33C207.681 234.878 207.594 234.431 207.422 234.013C207.25 233.595 206.998 233.215 206.68 232.895C206.361 232.574 205.983 232.32 205.566 232.146C205.149 231.972 204.702 231.881 204.25 231.88V231.88Z"
      fill="none"
      stroke="#fff"
      stroke-linecap="round"
      stroke-linejoin="round"
      stroke-width="2"
    >
      <animate
        attributeName="d"
        repeatCount="indefinite"
        dur="1"
        values="M204.25 231.88H202.2C201.288 231.885 200.416 232.251 199.773 232.898C199.131 233.544 198.77 234.418 198.77 235.33V238.25C198.77 239.162 199.131 240.036 199.773 240.682C200.416 241.329 201.288 241.695 202.2 241.7H204.25C205.162 241.695 206.034 241.329 206.677 240.682C207.319 240.036 207.68 239.162 207.68 238.25V235.33C207.681 234.878 207.594 234.431 207.422 234.013C207.25 233.595 206.998 233.215 206.68 232.895C206.361 232.574 205.983 232.32 205.566 232.146C205.149 231.972 204.702 231.881 204.25 231.88V231.88Z; M205.15 232H202.85C201.827 232.004 200.847 232.302 200.126 232.829C199.405 233.356 199 234.068 199 234.811V237.189C199 237.932 199.405 238.644 200.126 239.171C200.847 239.698 201.827 239.996 202.85 240H205.15C206.173 239.996 207.153 239.698 207.874 239.171C208.595 238.644 209 237.932 209 237.189V234.811C209.001 234.443 208.903 234.078 208.71 233.738C208.518 233.397 208.235 233.088 207.877 232.827C207.52 232.566 207.095 232.358 206.627 232.216C206.159 232.075 205.657 232.001 205.15 232V232Z; M204.25 231.88H202.2C201.288 231.885 200.416 232.251 199.773 232.898C199.131 233.544 198.77 234.418 198.77 235.33V238.25C198.77 239.162 199.131 240.036 199.773 240.682C200.416 241.329 201.288 241.695 202.2 241.7H204.25C205.162 241.695 206.034 241.329 206.677 240.682C207.319 240.036 207.68 239.162 207.68 238.25V235.33C207.681 234.878 207.594 234.431 207.422 234.013C207.25 233.595 206.998 233.215 206.68 232.895C206.361 232.574 205.983 232.32 205.566 232.146C205.149 231.972 204.702 231.881 204.25 231.88V231.88Z"
      />
    </path>
    <path
      id="left-window"
      d="M185.64 231.88H183.59C182.678 231.885 181.806 232.251 181.163 232.898C180.521 233.544 180.16 234.418 180.16 235.33V238.25C180.16 239.162 180.521 240.036 181.163 240.682C181.806 241.329 182.678 241.695 183.59 241.7H185.64C186.552 241.695 187.424 241.329 188.067 240.682C188.709 240.036 189.07 239.162 189.07 238.25V235.33C189.07 234.418 188.709 233.544 188.067 232.898C187.424 232.251 186.552 231.885 185.64 231.88V231.88Z"
      fill="none"
      stroke="#fff"
      stroke-linecap="round"
      stroke-linejoin="round"
      stroke-width="2"
    >
      <animate
        attributeName="d"
        repeatCount="indefinite"
        dur="1"
        values="M185.64 231.88H183.59C182.678 231.885 181.806 232.251 181.163 232.898C180.521 233.544 180.16 234.418 180.16 235.33V238.25C180.16 239.162 180.521 240.036 181.163 240.682C181.806 241.329 182.678 241.695 183.59 241.7H185.64C186.552 241.695 187.424 241.329 188.067 240.682C188.709 240.036 189.07 239.162 189.07 238.25V235.33C189.07 234.418 188.709 233.544 188.067 232.898C187.424 232.251 186.552 231.885 185.64 231.88V231.88Z; M186.765 232H184.235C183.109 232.004 182.032 232.302 181.239 232.829C180.445 233.356 180 234.068 180 234.811V237.189C180 237.932 180.445 238.644 181.239 239.171C182.032 239.698 183.109 239.996 184.235 240H186.765C187.891 239.996 188.968 239.698 189.761 239.171C190.555 238.644 191 237.932 191 237.189V234.811C191 234.068 190.555 233.356 189.761 232.829C188.968 232.302 187.891 232.004 186.765 232V232Z; M185.64 231.88H183.59C182.678 231.885 181.806 232.251 181.163 232.898C180.521 233.544 180.16 234.418 180.16 235.33V238.25C180.16 239.162 180.521 240.036 181.163 240.682C181.806 241.329 182.678 241.695 183.59 241.7H185.64C186.552 241.695 187.424 241.329 188.067 240.682C188.709 240.036 189.07 239.162 189.07 238.25V235.33C189.07 234.418 188.709 233.544 188.067 232.898C187.424 232.251 186.552 231.885 185.64 231.88V231.88Z;"
      />
    </path>
    <g id="layers">
      <path
        id="bottom-layer"
        d="M132.18 195.12C148.92 199.39 176.76 205.12 204.99 205.12C249.13 205.12 277.74 198.8 278.59 190.94C277.73 210.28 249.14 225.8 204.99 225.8C176.76 225.8 148.92 211.61 132.18 201.12C130.44 200.025 128.988 198.53 127.944 196.759C126.9 194.988 126.295 192.993 126.18 190.94C126.44 192.55 128.44 194.12 132.18 195.08"
        fill="#068e4d"
      >
        <animate
          attributeName="d"
          repeatCount="indefinite"
          dur="1"
          values="M132.18 195.12C148.92 199.39 176.76 205.12 204.99 205.12C249.13 205.12 277.74 198.8 278.59 190.94C277.73 210.28 249.14 225.8 204.99 225.8C176.76 225.8 148.92 211.61 132.18 201.12C130.44 200.025 128.988 198.53 127.944 196.759C126.9 194.988 126.295 192.993 126.18 190.94C126.44 192.55 128.44 194.12 132.18 195.08; M132.18 195.12C148.92 199.39 176.76 205.12 204.99 205.12C249.13 205.12 277.74 198.8 278.59 190.94C277.73 210.28 249.14 225.8 204.99 225.8C176.76 225.8 148.92 211.61 132.18 201.12C130.44 200.025 128.988 198.53 127.944 196.759C126.9 194.988 126.295 192.993 126.18 190.94C126.44 192.55 128.44 194.12 132.18 195.08; M132.18 195.12C148.92 199.39 176.76 205.12 204.99 205.12C249.13 205.12 277.74 198.8 278.59 190.94C277.73 210.28 249.14 225.8 204.99 225.8C176.76 225.8 148.92 211.61 132.18 201.12C130.44 200.025 128.988 198.53 127.944 196.759C126.9 194.988 126.295 192.993 126.18 190.94C126.44 192.55 128.44 194.12 132.18 195.08"
        />
      </path>
      <path
        id="middle-layer"
        d="M132.18 186.12C148.92 181.85 176.76 176.12 204.99 176.12C249.52 176.12 278.25 182.55 278.6 190.5C278.6 190.67 278.6 190.84 278.6 191.01C277.75 198.87 249.15 205.18 205 205.18C176.77 205.18 148.93 199.42 132.19 195.18C128.4 194.18 126.4 192.65 126.19 191.05V190.54C126.32 188.85 128.34 187.18 132.29 186.17"
        fill="#25b774"
      >
        <animate
          attributeName="d"
          repeatCount="indefinite"
          dur="1"
          values="M132.18 186.12C148.92 181.85 176.76 176.12 204.99 176.12C249.52 176.12 278.25 182.55 278.6 190.5C278.6 190.67 278.6 190.84 278.6 191.01C277.75 198.87 249.15 205.18 205 205.18C176.77 205.18 148.93 199.42 132.19 195.18C128.4 194.18 126.4 192.65 126.19 191.05V190.54C126.32 188.85 128.34 187.18 132.29 186.17; M132.18 186.12C148.92 181.85 176.76 180.5 204.99 180.5C249.52 180.5 278.25 182.55 278.6 190.5C278.6 190.67 278.6 190.84 278.6 191.01C277.75 198.87 249.14 210 204.99 210C176.76 210 148.93 199.42 132.19 195.18C128.4 194.18 126.4 192.65 126.19 191.05V190.54C126.32 188.85 128.34 187.18 132.29 186.17; M132.18 186.12C148.92 181.85 176.76 176.12 204.99 176.12C249.52 176.12 278.25 182.55 278.6 190.5C278.6 190.67 278.6 190.84 278.6 191.01C277.75 198.87 249.15 205.18 205 205.18C176.77 205.18 148.93 199.42 132.19 195.18C128.4 194.18 126.4 192.65 126.19 191.05V190.54C126.32 188.85 128.34 187.18 132.29 186.17"
        />
      </path>
      <path
        id="top-layer"
        d="M205 176.09C176.77 176.09 148.93 181.85 132.19 186.09C128.24 187.09 126.19 188.75 126.11 190.43C126.028 188.159 126.546 185.908 127.612 183.901C128.678 181.894 130.253 180.204 132.18 179C148.92 168.5 176.76 154.32 204.99 154.32C249.8 154.32 278.63 170.32 278.63 190.07C278.63 190.19 278.63 190.31 278.63 190.44C278.26 182.49 249.53 176.07 205 176.07"
        fill="#36e69a"
      >
        <animate
          attributeName="d"
          repeatCount="indefinite"
          dur="1"
          values="M205 176.09C176.77 176.09 148.93 181.85 132.19 186.09C128.24 187.09 126.19 188.75 126.11 190.43C126.028 188.159 126.546 185.908 127.612 183.901C128.678 181.894 130.253 180.204 132.18 179C148.92 168.5 176.76 154.32 204.99 154.32C249.8 154.32 278.63 170.32 278.63 190.07C278.63 190.19 278.63 190.31 278.63 190.44C278.26 182.49 249.53 176.07 205 176.07; M205 180.5C176.770 180.50 148.93 181.85 132.19 186.09C128.24 187.09 126.19 188.75 126.11 190.43C126.028 188.159 126.546 185.908 127.612 183.901C128.678 181.894 130.253 180.204 132.18 179C148.92 168.5 176.76 154.32 204.99 154.32C249.8 154.32 278.63 170.32 278.63 190.07C278.63 190.19 278.63 190.31 278.63 190.44C278.26 182.49 249.53 180.50 205 180.5; M205 176.09C176.77 176.09 148.93 181.85 132.19 186.09C128.24 187.09 126.19 188.75 126.11 190.43C126.028 188.159 126.546 185.908 127.612 183.901C128.678 181.894 130.253 180.204 132.18 179C148.92 168.5 176.76 154.32 204.99 154.32C249.8 154.32 278.63 170.32 278.63 190.07C278.63 190.19 278.63 190.31 278.63 190.44C278.26 182.49 249.53 176.07 205 176.07"
        />
      </path>
    </g>
    <path
      d="M205,227.08c43.38,0,74.86-15.55,74.86-37s-31.48-37-74.86-37c-27.94,0-55.36,13.53-73.46,24.87a14.3,14.3,0,0,0,0,24.21C149.63,213.54,177.06,227.08,205,227.08Z"
      fill="none" stroke="#fff" stroke-width="2"/>
    <g id="bottom-front-wing">
      <path
        d="M123.23,207.39h9.16a3.29,3.29,0,0,0,3.29-3.3v-5.71a3.29,3.29,0,0,0-3.29-3.3H115.57a1.32,1.32,0,0,0-1.32,1.32v2a9,9,0,0,0,9,9"
        fill="#068e4d"/>
      <path
        d="M123.23,207.39h9.16a3.29,3.29,0,0,0,3.29-3.3v-5.71a3.29,3.29,0,0,0-3.29-3.3H115.57a1.32,1.32,0,0,0-1.32,1.32v2A9,9,0,0,0,123.23,207.39Z"
        fill="none" stroke="#fff" stroke-linecap="round" stroke-linejoin="round" stroke-width="2"/>
      <animateTransform
        attributeName="transform"
        type="translate"
        values="0,-3; 0,3; 0,-3"
        dur="1s"
        repeatCount="indefinite"
        fill="freeze"
      />
    </g>
    <g id="bottom-front-wing">
      <path
        d="M123.23,173.34h9.16a3.29,3.29,0,0,1,3.29,3.3v5.71a3.29,3.29,0,0,1-3.29,3.3H115.57a1.32,1.32,0,0,1-1.32-1.32v-2a9,9,0,0,1,9-9"
        fill="#068e4d"/>
      <path
        d="M123.23,173.34h9.16a3.29,3.29,0,0,1,3.29,3.3v5.71a3.29,3.29,0,0,1-3.29,3.3H115.57a1.32,1.32,0,0,1-1.32-1.32v-2A9,9,0,0,1,123.23,173.34Z"
        fill="none" stroke="#fff" stroke-linecap="round" stroke-linejoin="round" stroke-width="2"/>
      <animateTransform
        attributeName="transform"
        type="translate"
        values="0,-3; 0,3; 0,-3"
        dur="1s"
        repeatCount="indefinite"
        fill="freeze"
      />
    </g>
  </g>
  <g id="cloud-1">
    <line
      id="border"
      x1="68.95"
      y1="107.8"
      x2="131.86"
      y2="107.8"
      fill="none"
      stroke="#fff"
      stroke-linecap="round"
      stroke-miterlimit="10"
    >
      <animateTransform
        attributeName="transform"
        type="translate"
        from="180"
        to="-95"
        dur="2s"
        fill="freeze"
      />
    </line>
    <path
      id="body"
      d="M41.77,97.54H77.06a12.4,12.4,0,1,1,24.8,0h17.93"
      fill="none"
      stroke="#fff"
      stroke-linecap="round"
      stroke-miterlimit="10"
      stroke-width="2"
    >
      <animateTransform
        attributeName="transform"
        type="translate"
        from="190"
        to="-100"
        dur="2s"
        fill="freeze"
      />
    </path>

    <animate
      attributeName="opacity"
      begin="1s"
      from="1"
      to="0"
      dur="0.5s"
      fill="freeze"
    />

    <animate
      attributeName="opacity"
      from="0"
      to="1"
      dur="0.5s"
      fill="freeze"
    />
  </g>
  <g id="cloud-2" opacity="0">
    <path
      d="M278.75,82.91H251.39a12.4,12.4,0,1,0-24.8,0H208.65"
      fill="none"
      stroke="#fff"
      stroke-linecap="round"
      stroke-miterlimit="10"
      stroke-width="2"
    >
      <animateTransform
        attributeName="transform"
        type="translate"
        from="180"
        to="-195"
        dur="2.8"
        fill="freeze"
      />
    </path>
    <line
      x1="287.01"
      y1="82.91"
      x2="309.21"
      y2="82.91"
      fill="none"
      stroke="#fff"
      stroke-linecap="round"
      stroke-miterlimit="10"
      stroke-width="2"
    >
      <animateTransform
        attributeName="transform"
        type="translate"
        from="180"
        to="-195"
        dur="2.8"
        fill="freeze"
      />
    </line>
    <line
      x1="258.96"
      y1="93.19"
      x2="298.74"
      y2="93.19"
      fill="none"
      stroke="#fff"
      stroke-linecap="round"
      stroke-miterlimit="10"
      stroke-width="2"
    >
      <animateTransform
        attributeName="transform"
        type="translate"
        from="180"
        to="-180"
        dur="2.8"
        fill="freeze"
      />
    </line>
    <animate
      attributeName="opacity"
      begin="2"
      from="1.5"
      to="0"
      dur="0.5"
      fill="freeze"
    />

    <animate
      attributeName="opacity"
      begin="1"
      from="0"
      to="1"
      dur="0.5"
      fill="freeze"
    />
  </g>
  <g id="smoke">
    <line
      x1="106.25"
      y1="179.49"
      x2="84.05"
      y2="179.49"
      fill="none"
      stroke="#fff"
      stroke-linecap="round"
      stroke-miterlimit="10"
      stroke-width="2"
    >
      <animate
        attributeName="x2"
        begin="0.1"
        values="84.05; 89.05; 84.05;"
        dur="0.2"
        repeatCount="indefinite"
      />
    </line>
    <line
      x1="106.25"
      y1="201.23"
      x2="84.05"
      y2="201.23"
      fill="none"
      stroke="#fff"
      stroke-linecap="round"
      stroke-miterlimit="10"
      stroke-width="2"
    >
      <animate
        attributeName="x2"
        begin="0.2"
        values="84.05; 89.05; 84.05;"
        dur="0.2"
        repeatCount="indefinite"
      />
    </line>
    <line
      x1="106.25"
      y1="190.98"
      x2="68.77"
      y2="190.98"
      fill="none"
      stroke="#fff"
      stroke-linecap="round"
      stroke-miterlimit="10"
      stroke-width="2"
    >
      <animate
        attributeName="x2"
        begin="0.3"
        values="68.77; 74.77; 68.77;"
        dur="0.2"
        repeatCount="indefinite"
      />
    </line>
  </g>
  <g id="mountain">
    <path
      d="M289.94,327.88H244.88L212.8,296.58a1.89,1.89,0,0,0-2.44,0l-10.2,10.23a1.72,1.72,0,0,1-2.25,0l-19-20.17a2.4,2.4,0,0,0-3.1,0l-26.42,25.64a1.71,1.71,0,0,1-2.25,0l-2.63-2.92a1.71,1.71,0,0,0-2.31,0L124.63,329H80.78"
      fill="none"
      stroke="#fff"
      stroke-linecap="round"
      stroke-miterlimit="10"
      stroke-width="2"
    />
    <path
      d="M289.94,328H200.15c-0.86,0-1.56,0-2.25,0h-19c-1.5,0-2.23,0-3.1,0h-32.3c-1.09,0-1.66,0-2.31,0H80.78"
      fill="none"
      stroke="#fff"
      stroke-linecap="round"
      stroke-miterlimit="10"
      stroke-width="2"
    />
  </g>
</svg>

<svg xmlns="http://www.w3.org/2000/svg" xmlns:xlink="http://www.w3.org/1999/xlink" viewBox="0 0 350 330">
  <g>
    <path d="M175.44,249.28h48.36a13.27,13.27,0,0,0,13-10.65l3.74-18.32H172.36v25.89A3.09,3.09,0,0,0,175.44,249.28Z" fill="none" stroke="#fff" stroke-linecap="round" stroke-linejoin="round" stroke-width="2"/>
    <path d="M235.79,241.69h-9.22a8.31,8.31,0,0,1-8.28-8.31V220.31" fill="none" stroke="#fff" stroke-linecap="round" stroke-miterlimit="10" stroke-width="2"/>
    <path d="M204.25,231.88h-2.05a3.45,3.45,0,0,0-3.43,3.45v2.92a3.45,3.45,0,0,0,3.43,3.45h2.05a3.45,3.45,0,0,0,3.43-3.45v-2.92A3.44,3.44,0,0,0,204.25,231.88Z" fill="none" stroke="#fff" stroke-linecap="round" stroke-linejoin="round" stroke-width="2"/>
    <path d="M185.64,231.88h-2.05a3.45,3.45,0,0,0-3.43,3.45v2.92a3.45,3.45,0,0,0,3.43,3.45h2.05a3.45,3.45,0,0,0,3.43-3.45v-2.92A3.45,3.45,0,0,0,185.64,231.88Z" fill="none" stroke="#fff" stroke-linecap="round" stroke-linejoin="round" stroke-width="2"/>
    <path d="M205,227.08c43.38,0,74.86-15.55,74.86-37s-31.48-37-74.86-37c-27.94,0-55.36,13.53-73.46,24.87a14.3,14.3,0,0,0,0,24.21c18.09,11.33,45.52,24.87,73.46,24.87" fill="#068e4d"/>
    <path d="M205,227.08c43.38,0,74.86-15.55,74.86-37s-31.48-37-74.86-37c-27.94,0-55.36,13.53-73.46,24.87a14.3,14.3,0,0,0,0,24.21C149.63,213.54,177.06,227.08,205,227.08Z" fill="none" stroke="#fff" stroke-width="2"/>
    <path d="M205,176.09c-28.23,0-56.07,5.76-72.81,10-3.95,1-6,2.66-6.08,4.34A12.93,12.93,0,0,1,132.18,179c16.74-10.5,44.58-24.68,72.81-24.68,44.81,0,73.64,16,73.64,35.75,0,0.12,0,.24,0,0.37-0.37-7.95-29.1-14.37-73.63-14.37" fill="#36e69a"/>
    <path d="M132.18,195.12c16.74,4.27,44.58,10,72.81,10,44.14,0,72.75-6.32,73.6-14.18-0.86,19.34-29.45,34.86-73.6,34.86-28.23,0-56.07-14.19-72.81-24.68a12.88,12.88,0,0,1-6-10.18c0.26,1.61,2.26,3.18,6,4.14" fill="#068e4d"/>
    <path d="M132.18,186.12c16.74-4.27,44.58-10,72.81-10,44.53,0,73.26,6.43,73.61,14.38,0,0.17,0,.34,0,0.51-0.85,7.86-29.45,14.17-73.6,14.17-28.23,0-56.07-5.76-72.81-10-3.79-1-5.79-2.53-6-4.13l0-.51c0.13-1.69,2.15-3.36,6.1-4.37" fill="#25b774"/>
    <path d="M123.23,173.34h9.16a3.29,3.29,0,0,1,3.29,3.3v5.71a3.29,3.29,0,0,1-3.29,3.3H115.57a1.32,1.32,0,0,1-1.32-1.32v-2a9,9,0,0,1,9-9" fill="#068e4d"/>
    <path d="M123.23,173.34h9.16a3.29,3.29,0,0,1,3.29,3.3v5.71a3.29,3.29,0,0,1-3.29,3.3H115.57a1.32,1.32,0,0,1-1.32-1.32v-2A9,9,0,0,1,123.23,173.34Z" fill="none" stroke="#fff" stroke-linecap="round" stroke-linejoin="round" stroke-width="2"/>
    <path d="M123.23,207.39h9.16a3.29,3.29,0,0,0,3.29-3.3v-5.71a3.29,3.29,0,0,0-3.29-3.3H115.57a1.32,1.32,0,0,0-1.32,1.32v2a9,9,0,0,0,9,9" fill="#068e4d"/>
    <path d="M123.23,207.39h9.16a3.29,3.29,0,0,0,3.29-3.3v-5.71a3.29,3.29,0,0,0-3.29-3.3H115.57a1.32,1.32,0,0,0-1.32,1.32v2A9,9,0,0,0,123.23,207.39Z" fill="none" stroke="#fff" stroke-linecap="round" stroke-linejoin="round" stroke-width="2"/>
    <path d="M123.23,173.34h9.16a3.29,3.29,0,0,1,3.29,3.3v5.71a3.29,3.29,0,0,1-3.29,3.3H115.57a1.32,1.32,0,0,1-1.32-1.32v-2a9,9,0,0,1,9-9" fill="#068e4d"/>
    <path d="M123.23,173.34h9.16a3.29,3.29,0,0,1,3.29,3.3v5.71a3.29,3.29,0,0,1-3.29,3.3H115.57a1.32,1.32,0,0,1-1.32-1.32v-2A9,9,0,0,1,123.23,173.34Z" fill="none" stroke="#fff" stroke-linecap="round" stroke-linejoin="round" stroke-width="2"/>
    <path d="M123.23,207.39h9.16a3.29,3.29,0,0,0,3.29-3.3v-5.71a3.29,3.29,0,0,0-3.29-3.3H115.57a1.32,1.32,0,0,0-1.32,1.32v2a9,9,0,0,0,9,9" fill="#068e4d"/>
    <path d="M123.23,207.39h9.16a3.29,3.29,0,0,0,3.29-3.3v-5.71a3.29,3.29,0,0,0-3.29-3.3H115.57a1.32,1.32,0,0,0-1.32,1.32v2A9,9,0,0,0,123.23,207.39Z" fill="none" stroke="#fff" stroke-linecap="round" stroke-linejoin="round" stroke-width="2"/>
  </g>
  <line x1="68.95" y1="107.8" x2="131.86" y2="107.8" fill="none" stroke="#fff" stroke-linecap="round" stroke-miterlimit="10" stroke-width="2"/>
  <g>
    <path d="M41.77,97.54H77.06a12.4,12.4,0,1,1,24.8,0h17.93" fill="none" stroke="#fff" stroke-linecap="round" stroke-miterlimit="10" stroke-width="2"/>
  </g>
  <line x1="258.96" y1="93.19" x2="298.74" y2="93.19" fill="none" stroke="#fff" stroke-linecap="round" stroke-miterlimit="10" stroke-width="2"/>
  <g>
    <path d="M278.75,82.91H251.39a12.4,12.4,0,1,0-24.8,0H208.65" fill="none" stroke="#fff" stroke-linecap="round" stroke-miterlimit="10" stroke-width="2"/>
    <line x1="287.01" y1="82.91" x2="309.21" y2="82.91" fill="none" stroke="#fff" stroke-linecap="round" stroke-miterlimit="10" stroke-width="2"/>
  </g>
  <line x1="106.25" y1="179.49" x2="84.05" y2="179.49" fill="none" stroke="#fff" stroke-linecap="round" stroke-miterlimit="10" stroke-width="2"/>
  <line x1="106.25" y1="201.23" x2="84.05" y2="201.23" fill="none" stroke="#fff" stroke-linecap="round" stroke-miterlimit="10" stroke-width="2"/>
  <line x1="106.25" y1="190.98" x2="68.77" y2="190.98" fill="none" stroke="#fff" stroke-linecap="round" stroke-miterlimit="10" stroke-width="2"/>
  <g>
    <path d="M289.94,327.88H244.88L212.8,296.58a1.89,1.89,0,0,0-2.44,0l-10.2,10.23a1.72,1.72,0,0,1-2.25,0l-19-20.17a2.4,2.4,0,0,0-3.1,0l-26.42,25.64a1.71,1.71,0,0,1-2.25,0l-2.63-2.92a1.71,1.71,0,0,0-2.31,0L124.63,329H80.78" fill="none" stroke="#fff" stroke-linecap="round" stroke-miterlimit="10" stroke-width="2"/>
    <path d="M289.94,328H200.15c-0.86,0-1.56,0-2.25,0h-19c-1.5,0-2.23,0-3.1,0h-32.3c-1.09,0-1.66,0-2.31,0H80.78" fill="none" stroke="#fff" stroke-linecap="round" stroke-miterlimit="10" stroke-width="2"/>
  </g>
</svg>
